X: 36938
T: Short Is The Night, Long Is The Road
R: jig
M: 6/8
K: Eminor
|:e2B gfd|edB AB/c/d|edB c2d|efa gfd|
eee gfd|edB AB/c/d|edB AGF|1 GFE EGB:|2 GFE E2F||
GEE BBB|EGB e2g|fdd fab|afd AGF|
GEE BBB|EGB e2e|fff agf|ggg e3|
EGB A^ce|ggg gfe|fdd fab|afd AGF|
GGG AAA|BBB def|edB AGF|GFE EGB||

